website/static/img/icons/white/question-mark.svg

<svg fill="none" height="27" viewBox="0 0 27 27" width="27" xmlns="http://www.w3.org/2000/svg"><path d="m13.5 27c-7.45584 0-13.5-6.0442-13.5-13.5 0-7.45584 6.04416-13.5 13.5-13.5 7.4558 0 13.5 6.04416 13.5 13.5 0 7.4558-6.0442 13.5-13.5 13.5zm0-2.7c5.9647 0 10.8-4.8353 10.8-10.8 0-5.96468-4.8353-10.8-10.8-10.8-5.96468 0-10.8 4.83532-10.8 10.8 0 5.9647 4.83532 10.8 10.8 10.8zm0-6.75c-.7456 0-1.35-.6044-1.35-1.35s.6044-1.35 1.35-1.35c1.4912 0 2.7-1.2088 2.7-2.7s-1.2088-2.7-2.7-2.7-2.7 1.2088-2.7 2.7c0 .7456-.6044 1.35-1.35 1.35-.74558 0-1.35-.6044-1.35-1.35 0-2.98234 2.4177-5.4 5.4-5.4s5.4 2.41766 5.4 5.4c0 2.9823-2.4177 5.4-5.4 5.4zm0 4.05c-.7456 0-1.35-.6044-1.35-1.35s.6044-1.35 1.35-1.35 1.35.6044 1.35 1.35-.6044 1.35-1.35 1.35z" fill="#fff"/></svg>

<svg width="27" height="27" viewBox="0 0 27 27" fill="none" xmlns="http://www.w3.org/2000/svg">
<path d="M13.5 27C6.04416 27 0 20.9558 0 13.5C0 6.04416 6.04416 0 13.5 0C20.9558 0 27 6.04416 27 13.5C27 20.9558 20.9558 27 13.5 27ZM13.5 24.3C19.4647 24.3 24.3 19.4647 24.3 13.5C24.3 7.53532 19.4647 2.7 13.5 2.7C7.53532 2.7 2.7 7.53532 2.7 13.5C2.7 19.4647 7.53532 24.3 13.5 24.3ZM13.5 17.55C12.7544 17.55 12.15 16.9456 12.15 16.2C12.15 15.4544 12.7544 14.85 13.5 14.85C14.9912 14.85 16.2 13.6412 16.2 12.15C16.2 10.6588 14.9912 9.45 13.5 9.45C12.0088 9.45 10.8 10.6588 10.8 12.15C10.8 12.8956 10.1956 13.5 9.45 13.5C8.70442 13.5 8.1 12.8956 8.1 12.15C8.1 9.16766 10.5177 6.75 13.5 6.75C16.4823 6.75 18.9 9.16766 18.9 12.15C18.9 15.1323 16.4823 17.55 13.5 17.55ZM13.5 21.6C12.7544 21.6 12.15 20.9956 12.15 20.25C12.15 19.5044 12.7544 18.9 13.5 18.9C14.2456 18.9 14.85 19.5044 14.85 20.25C14.85 20.9956 14.2456 21.6 13.5 21.6Z" fill="white"/>
</svg>
